Obsidian-SemiLight/actions/16s/filename-group-tracks.svg

<svg viewBox="0 0 16 16" xmlns="http://www.w3.org/2000/svg"><path d="m2 2v.75 10.25h1 1 1v1h2v-1h-1v-8h6v2h1v-2-1h-1v-2h-1.357422-7.8574218zm1 1h8v1h-6v1 7h-1-1zm6 5v1h-1v1h1v2h-1v1h1v1h1v-1h2v1h1v-1h1v-1h-1v-2h1v-1h-1v-1h-1v1h-2v-1zm1 2h2v2h-2z" fill="#4d4d4d"/></svg>

<svg xmlns="http://www.w3.org/2000/svg" viewBox="0 0 16 16">
  <defs id="defs3051">
    <style type="text/css" id="current-color-scheme">
      .ColorScheme-Text {
        color:#4d4d4d;
      }
      </style>
  </defs>
 <path style="fill:currentColor;fill-opacity:1;stroke:none" 
     d="M 2 2 L 2 2.75 L 2 13 L 3 13 L 4 13 L 5 13 L 5 14 L 7 14 L 7 13 L 6 13 L 6 5 L 12 5 L 12 7 L 13 7 L 13 5 L 13 4 L 12 4 L 12 2 L 10.642578 2 L 2.7851562 2 L 2 2 z M 3 3 L 11 3 L 11 4 L 5 4 L 5 5 L 5 12 L 4 12 L 3 12 L 3 3 z M 9 8 L 9 9 L 8 9 L 8 10 L 9 10 L 9 12 L 8 12 L 8 13 L 9 13 L 9 14 L 10 14 L 10 13 L 12 13 L 12 14 L 13 14 L 13 13 L 14 13 L 14 12 L 13 12 L 13 10 L 14 10 L 14 9 L 13 9 L 13 8 L 12 8 L 12 9 L 10 9 L 10 8 L 9 8 z M 10 10 L 12 10 L 12 12 L 10 12 L 10 10 z "
     class="ColorScheme-Text"
     />
</svg>
